X: 6017
T: Caoineadh Cu Chulainn
R: polka
M: 2/4
K: Gmajor
|:F|"G5"G2 "Gsus4"d2|"G"ga/g/ fd|"G3"B2 "Gsus4/ G" cd|"Gsus4" F4|
GF "G"D2|D2 zF|G2 "G/D"d2|"G"ga/g/ fd|
"G3"B2 "Gsus4/"c2|"G"d2 "Gsus4"{E}F2|F2 "G"G2|G4|
Gz de/f/|"Cmaj9"g2 "D"a2|{d}eA B2|Bz de/f/ "Cmaj7"ge/g/ "D"a2|
d2 B2|"Am7"cB/c/ de|"Gsus4/"A4|Az D2|
"Gsus4"G2 "G7sus4" d2|"C2/G"eA B2|B(3B/A/G/ "D/G"A2|A(3A/G/F/ "C2/G"G2|
"Csus2"G2 GF|F2 G2|G4|G2 Gd:|
|:"Em"a2 b"Cmaj7/E"d|"Em7"a2 b2|g2 fg|"D"a2 dB|
"C2"cB/c/ "G/B" Bc/d/|dz "C2"G2|G4|G2 zd|
"Em"a2 b"Cmaj7/E"d|"Em7"a2 b2|g2 "Em"d2|B2 "C"c2|
c"C2"d/c/ Bc|"D"d4|ga "G"b2|"C/G"c'2 b"D/G"a|
a2 "D/C"f2|"Em"g2 "D"f2|"C"d2 B2|c(3B/c/d/ e"C6/9"A|
A4|A2 AD:|:"G7sus4"G2 d2|B2 "C2/G"cd/c/|
"Em"B2 GA|"Em"B2 E2|F4|G4|"C"G4|
G3 D|"G7sus4"G2 d2|B2 "C2/G"cd/c/|
"Em"B2 GA|"Em"B2 E2|"C2"F4|G4|"A"G4|G3:|"G5"||

